X:1
T:Title
%%score { ( 1 3 ) | ( 2 4 ) }
L:1/8
M:4/4
K:Ab
V:1 treble nm="Grand Piano"
V:3 treble 
V:2 bass 
V:4 bass 
V:1
 z4 z2[Q:1/4=96] [A,C][B,D] | [CE][CE] [DF]2 [CE]2 [CA][DB] | [Ec]2 [Fd]2 [Ec]2 [Ec][=EB] | %3
 [FA]2 [FA][GB] [FA]2 [DF]2 |[M:3/4] [CE]6 |[M:1/4] [CE]E |[M:4/4] G2 A2 B2 [EG]2 | %7
 [EA]2 [EA]B c2 [Ec][Ec] | [EB][EB][G,E][G,E] [B,=DG]2 [A,DF]2 |[M:7/8] E2- [CE-]2 [DE]3 | %10
[M:1/4] [CA][DB] |[M:4/4] [Ec][Fc][Gc][Ac] [Gc][_Gc][Fe][=Ed] | %12
 c->[Ec-] [Ec-]>[Ec-] [Ec]2 [Ec][=Ec] | [FB][FB][FB][Fc] [FB][FA][EG][DF] | z2 E4 z2 | %15
[M:3/4] ee ec [Fd]2 |[M:1/4] FF |[M:9/8] [=EG][EG][Ec] [GB] A2- AGF |[M:4/4] EEcd cc B>B | %19
[M:3/4] [CA]6 |] %20
V:2
 z4 z2 [A,,E,][A,,E,] | [A,,A,]2 [A,,A,]2 [A,,A,]2 [A,,E,][A,,E,] | %2
 [A,,A,]2 [A,,A,]2 [A,,A,]2 [A,,A,][C,A,] | [D,D]2 [D,D][D,D] [D,D]2 [D,A,]2 |[M:3/4] [A,,A,]6 | %5
[M:1/4] [A,,A,][C,A,] |[M:4/4] [E,B,E]2 [E,CE]2 [E,DE]2 [D,B,]2 | %7
 [C,A,]2 [C,A,][E,G,E] [A,E]2 [A,,A,][A,,A,] | [B,,G,][B,,G,]B,,B,, B,,2 B,,2 |[M:7/8] z2 A,2 B,3 | %10
[M:1/4] [A,,A,][A,,A,] |[M:4/4] [A,,A,]2 [A,,A,]2 [A,,A,]2 [A,,A,]2 | %12
 [A,,A,]>[A,,A,] [A,,A,]>[A,,A,] [A,,A,]2 [A,,A,][C,A,] | %13
 [D,D][D,D][D,D][D,D] [D,D][D,D][D,D][D,A,] | [A,,A,]2 [C,A,][E,B,] [A,,A,]2 [A,C][A,C] | %15
[M:3/4] [A,CE][A,CE] [F,A,F][F,A,F] [B,,B,]2 |[M:1/4] [D,B,][D,B,] | %17
[M:9/8] [C,C][C,C][C,G,] [=E,C] [F,CF]2- [F,CF][=D,A,_C][D,A,C] | %18
[M:4/4] [E,A,C][E,A,C][E,A,E][E,F] [E,G,E][E,E] [E,F,D]>[E,G,D] |[M:3/4] [A,,A,]6 |] %20
V:3
 x8 | x8 | x8 | x8 |[M:3/4] x6 |[M:1/4] x2 |[M:4/4] x8 | x8 | x8 |[M:7/8] [G,B,]2 z z z z2 | %10
[M:1/4] x2 |[M:4/4] x8 | E2 z2 z4 | x8 | [CE]2 z D C2 EE |[M:3/4] x6 |[M:1/4] x2 |[M:9/8] x9 | %18
[M:4/4] x8 |[M:3/4] x6 |] %20
V:4
 x8 | x8 | x8 | x8 |[M:3/4] x6 |[M:1/4] x2 |[M:4/4] x8 | x8 | x8 |[M:7/8] E,-E,-E,- E,- E,3 | %10
[M:1/4] x2 |[M:4/4] x8 | x8 | x8 | x8 |[M:3/4] x6 |[M:1/4] x2 |[M:9/8] x9 |[M:4/4] x8 | %19
[M:3/4] x6 |] %20

